X:1
T: Cluny Water
C:Alexander Walker
R:Strathspey
Q: 128
K:C
M:4/4
L:1/16
|:C2|EG3 G3c A3c G3c|d3c e3c AAA2 A3F|EG3 G3c d3c de3|c3A G3E CCC2 C2C2|
EG3 G3c A3c G3c|d3c e3c AAA2 A3F|EG3 G3c d3c de3|c3A G3E CCC2 C2a2|
g3c agfe gc3 c'3a|g3c e3c d4-d3a|g3c agfe gc3 e3d|c3A G2E2 CCC2 C3a|
g3c agfe gc3 c'3a|g3c e3c AAA2 A3G|Ac3 G3A c3d e2a2|gc3 e3d c4-c2:|
